X: 16
T: the Isle of Skye  [Bb]
T: Planxty George Brabazon
C:O'Carolan
R:reel
B:RSCDS 10-7
N:Attributed to Gow in RSCDS; this is a variant of the O'Carolan tune.
Z:1997 by John Chambers <jc:trillian.mit.edu>
M:C|
L:1/8
K:Bb
bg \
| "Bb"f2B2 edcB | f2B2 edcB | "Cm"g2c2 cdef | g2c2 cdeg |
| "Bb"f2ed b2ag | f2ed "Cm"c2Bc | "Bb"dcBG "F7"FGBc | d2B2 B2 ||
|| bc' \
| "Bb"d'2bd' "Cm"c'2ac' | "Bb"b2gb "Eb"g2df | "Cm"gcbc cdef | gcbc ca"F7"bc' |
| "Bb"d'2bd' "Cm"c'2ac' | "Bb"b2gb "Eb"b2"Gm"dg | "Bb"f2F2 "F7"FGBc | "Bb"d2B2 B2 |]

%%sep 1 1 500

